kiosk-igrinskij/images/2e34caf8d6edfeb20968a648781a55c0.svg

<svg fill="none" height="14" viewBox="0 0 14 14" width="14" xmlns="http://www.w3.org/2000/svg"><g fill="#f1e9dd"><path d="m13.0943 1.87209-1.5419-1.620572c-.1592-.1675547-.3685-.251518-.5774-.251518-.2094 0-.4187.0835918-.5775.251147l-1.23336 1.294373 2.69676 2.8332 1.2334-1.294c.3187-.33511.3187-.87864 0-1.21263z"/><path d="m1.15825 9.95636 2.6968 2.83354 7.42855-7.80409-2.69679-2.83358z"/><path d="m.575718 10.5623-.575718 3.4377 3.27252-.6045z"/></g></svg>

<svg width="14" height="14" viewBox="0 0 14 14" fill="none" xmlns="http://www.w3.org/2000/svg">
<path d="M13.0943 1.87209L11.5524 0.251518C11.3932 0.0839633 11.1839 0 10.975 0C10.7656 0 10.5563 0.0835918 10.3975 0.251147L9.16414 1.54552L11.8609 4.37872L13.0943 3.08472C13.413 2.74961 13.413 2.20608 13.0943 1.87209Z" fill="#F1E9DD"/>
<path d="M1.15825 9.95636L3.85505 12.7899L11.2836 4.98581L8.58681 2.15223L1.15825 9.95636Z" fill="#F1E9DD"/>
<path d="M0.575718 10.5623L0 14L3.27252 13.3955L0.575718 10.5623Z" fill="#F1E9DD"/>
</svg>
